X:13
T:Fars polka
R:polka
C:Arr.: S. Englund
H:Taught at the Nordic Heritage Museum June 1997 by Arne Helsing
B:From "Vexala L=E5tar" music book by Arne Helsing
Z:from Scandia
M:2/4
L:1/16
Q:1/4=125
K:G
P:A
|: "G" G2Bd g2fe| d2G2 B2G2|"D7" D2FA c2{d}BA|"G" G2A2 B2G2 |
| G2Bd g2fe| d2G2 B2G2|"D7" D2FA c2{d}BA| "G" G2B2G2 z2 :|
P:B
|: "G" d2dc B2g2|"Am" eged c2a2 \
|"D7" fgfe d2ef|"G" g2d2g2 z2 :|
